public/icons/linkedin.svg

<svg width="32" height="32" viewBox="0 0 32 32" fill="none" xmlns="http://www.w3.org/2000/svg">
<path fill-rule="evenodd" clip-rule="evenodd" d="M11.4254 24V13.3062H7.99414V24H11.4254ZM9.83789 11.6875C10.9816 11.6875 11.6941 10.8687 11.6941 9.84375C11.6754 8.8 10.9816 8 9.85664 8C8.73164 8 8.00039 8.8 8.00039 9.84375C8.00039 10.8687 8.71289 11.6875 9.81289 11.6875H9.83789Z" fill="white"/>
<path fill-rule="evenodd" clip-rule="evenodd" d="M20.0375 13.0625C18.2188 13.0625 17.4375 14.0875 16.9375 14.8V13.3125H13.5V24H16.9375V17.9125C16.9375 17.6 16.9625 17.2875 17.0562 17.0688C17.3062 16.4438 17.8688 15.8 18.8188 15.8C20.0625 15.8 20.5625 16.7563 20.5625 18.1562V24H24V17.7563C24 14.55 22.3 13.0625 20.0375 13.0625Z" fill="white"/>
<path d="M26.075 4H6.05C4.95625 4 4 4.7875 4 5.86875V25.9375C4 27.025 4.95625 27.9937 6.05 27.9937H26.0688C27.1688 27.9937 27.9937 27.0187 27.9937 25.9375V5.86875C28 4.7875 27.1688 4 26.075 4ZM25.875 26H6.19375C6.08125 26 6 25.9125 6 25.8062V6.125C6 6.05625 6.0625 6 6.125 6H25.875C25.9375 6 26 6.0625 26 6.125V25.875C26 25.9312 25.9438 26 25.875 26Z" fill="white"/>
</svg>

<svg width="32" height="32" fill="none" xmlns="http://www.w3.org/2000/svg"><path fill-rule="evenodd" clip-rule="evenodd" d="M11.425 24V13.306h-3.43V24h3.43ZM9.838 11.687c1.144 0 1.856-.818 1.856-1.843C11.675 8.8 10.982 8 9.857 8S8 8.8 8 9.844c0 1.025.713 1.844 1.813 1.844h.025ZM20.038 13.063c-1.82 0-2.6 1.024-3.1 1.737v-1.488H13.5V24h3.438v-6.087c0-.313.024-.625.118-.844.25-.625.813-1.269 1.763-1.269 1.244 0 1.744.956 1.744 2.356V24H24v-6.244c0-3.206-1.7-4.694-3.962-4.694Z" fill="#fff"/><path d="M26.075 4H6.05C4.956 4 4 4.787 4 5.869v20.069c0 1.087.956 2.056 2.05 2.056h20.019c1.1 0 1.925-.975 1.925-2.056V5.867C28 4.789 27.169 4 26.075 4Zm-.2 22H6.194A.19.19 0 0 1 6 25.806V6.125A.13.13 0 0 1 6.125 6h19.75c.063 0 .125.063.125.125v19.75c0 .056-.056.125-.125.125Z" fill="#fff"/></svg>
